X:1
T:The White Coffin
T:The White Coffin
T:Horace Neely Lincoln
T:Anderson Edith Baten, ca. 1880
T:Public Domain Courtesy of the Cyber Hymnal™
T:Public Domain Courtesy of the Cyber Hymnal™
C:Horace Neely Lincoln
Z:Public Domain
Z:Courtesy of the Cyber Hymnal™
%%score ( 1 2 ) ( 3 4 )
L:1/8
Q:1/4=102
M:4/4
K:G
V:1 treble 
V:2 treble 
V:3 bass 
V:4 bass 
V:1
 [B,D]2 | [DB]3 [DG] [EA][EG][CE][CG] | [B,D]6 [DB]2 | [Dc]3 [DB] [CA][B,^G][CA][^C^A] | %4
w: 1.~The|hearse was driv- en to our|door, It|brought a cof- fin, white as|
w: 2.~Our|pre- cious child! O is it|true That|we shall see his face no|
w: 3.~Our|babe has on- ly “gone be-|fore,” He’s|safe at home on Je- sus’|
 [DB]6 [DB]2 | [Gd]3 [Ge] [Gd][GB][FA][EG] | [EG]6 [Ec]2 | [DB]3 [DA] [DG][GB][FA][DF] | [DG]6 D2 | %9
w: snow; Such|cof- fins we had seen be-|fore, But|nev- er one, con- cerned us|so. They|
w: more? His|life was like the morn- ing|dew— ’Tis|gone; our hearts are bleed- ing|sore! A|
w: breast, Re-|leased from sor- row ev- er-|more, And|soon with him we’ll sweet- ly|rest; We|
 [CE]3 [EG] [Ec][CE][B,D][B,G] | [DB]6 [DB]2 | [DA]3 [DA] [D^G][DA][DB][G^c] | [Fd]6 [DB]2 | %13
w: took the cov- er from the|casque, And|placed a snow white form in-|side; We|
w: voice then whis- pered from a-|bove; “I|gave, I al- so took a-|way.” It|
w: by the emp- ty cra- dle|knelt, Poured|out our chast- ened souls in|prayer. A|
 [Gd]3 [Ge] [Gd][GB][FA][EG] | [EG]6 [Ec]2 | [DB]3 [DA] [DG][GB][FA][DF] | [DG]6 |] %17
w: looked once more— it was the|last— On|him who once had been our|pride.|
w: was our Fa- ther’s voice of|love! Our|con- so- la- tion, hope and|stay.|
w: strong- er tie to Heav’n we|felt, Be-|cause we knew our babe was|there.|
V:2
 x2 | x8 | x8 | x8 | x8 | x8 | x8 | x8 | x6 D2 | x8 | x8 | x8 | x8 | x8 | x8 | x8 | x6 |] %17
V:3
 [G,,G,]2 | [G,,G,]3 [B,,G,] [C,G,][C,G,][C,G,][E,G,] | G,6 [G,,G,]2 | %3
 [D,A,]3 [D,G,] [D,F,][D,^E,][D,F,][D,F,] | [G,,G,]6 G,2 | [G,B,]3 [G,C] [G,B,][G,D][D,C][E,B,] | %6
 [C,C]6 [C,G,]2 | [D,G,]3 [D,C] [D,B,][D,D][D,C][D,C] | [G,,B,]6 [B,,G,]2 | %9
 [C,G,]3 [C,G,] [C,G,][C,G,]G,G, | G,6 G,2 | [D,F,]3 [D,F,] [D,^E,][D,F,]G,[E,A,] | [D,A,]6 G,2 | %13
 [G,B,]3 [G,C] [G,B,][G,D][D,C][E,B,] | [C,C]6 [C,G,]2 | [D,G,]3 [D,C] [D,B,][D,D][D,C][D,C] | %16
 [G,,B,]6 |] %17
V:4
 x2 | x8 | G,6 x2 | x8 | x6 G,2 | x8 | x8 | x8 | x8 | x6 G,G, | G,6 G,2 | x6 G, x | x6 G,2 | x8 | %14
 x8 | x8 | x6 |] %17

